X: 1
T: The Road To Dundee
R: waltz
M: 3/4
L: 1/8
K: Gmaj
d2|d3cB2|B2A2D2|G2F2E2|D2G2B2|c3de2|d2B2G2|G2c2B2|A4d2|
d3cB2|B2A2D2|G2F2E2|D2G2B2|c3de2|d2B2G2|c2A2F2|G4||

